X:1
T:Title
%%score [ 1 2 3 ]
L:1/8
Q:1/4=108
M:4/4
K:C
V:1 treble nm="Soprano 1"
V:2 treble nm="Soprano 2"
V:3 treble nm="Alto"
V:1
"^Moderato  (c. 108)""^Moderato  (c. 108)""^Moderato  (c. 108)" z/ | z8 | z4 z2 z3/2 (G/ | %3
w: ||O,|
!sfz! d8) | z4 z2 z3/2 G/ | !fermata!d8 |!<(! d4 (e2 c2)!<)! | e2 g2 g4 |!p! f2 e2 d2 c2 | A4 c4 | %10
w: _|o,|_|vir- go _|vir- gi- num,|vir- go, vir- go|vir- gi-|
 B8 |[M:3/2] z12 |[M:4/4] z8 | %13
w: num,|||
[M:5/8][Q:1/4=130]"^poco piú mosso"[Q:1/4=130]"^poco piú mosso"[Q:1/4=130]"^poco piú mosso" z5 | %14
w: |
[M:3/4] c2 Bd cB |[M:5/8] cde fg |[M:3/4] _e2 d2 c2 |[M:5/8] dcB AB |[M:3/4] c2 d2 e2 | %19
w: Qui- a nec pri- mam,|qui- a nec pri- mam|si- mi- lem,|qui- a nec pri- mam|si- mi- lem|
 f2 e2 !fermata!d2 |[M:5/8]"^subito"!p! ddc cc |[M:2/4] !>!d2 !>!d2 || %22
w: vi- sa es|nec ha- be- re se-|quen- tem.|
[M:4/4][Q:1/4=108]"^Moderato  (c. 108)"[Q:1/4=108]"^Moderato  (c. 108)"[Q:1/4=108]"^Moderato  (c. 108)" z/ | %23
w: |
 z8 | z4 z2 z3/2 G/ | d6 z3/2 G/ | d6 z3/2 G/ | f2 f2 _e2 f2 | d4 c4 | d6 d2 | c4 B2 A2 | %31
w: |O,|_ o,|_ o,|fi- li- ae Ie-|ru- sa-|lem! Quid|me ad- mi-|
 !fermata!c2 !fermata!B2 !fermata!A4 || %32
w: ra- mi- ni?|
[Q:1/4=60]"^Meno mosso"[Q:1/4=60]"^Meno mosso"[Q:1/4=60]"^Meno mosso" z8 | z8 | z8 | %35
w: |||
!p!!<(! (c4 d4)!<)! |!>(! ed c4 z2!>)! | z8 | z8 |!<(! (c4 d4)!<)! |!>(! ed c4 z2!>)! | %41
w: my- *|ste- ri- um|||my- *|ste- ri- um|
!<(! (c4 d4)!<)! |!>(! ed c4 z2!>)! | z8 | z8 || %45
w: my- *|ste- ri- um.|||
[Q:1/4=108]"^Moderato  (c. 108)"[Q:1/4=108]"^Moderato  (c. 108)"[Q:1/4=108]"^Moderato  (c. 108)" z/ | %46
w: |
 z8 | z4 z2 z3/2 (G/ |!sfz! d8) | z4 z2 z3/2 G/ | !fermata!d8 |!<(! d4 (f2 e2)!<)! | %52
w: |O,||o,|_|vir- go *|
 !fermata!d2 !fermata!c2 !fermata!d4 |] %53
w: vir- gi- num,|
V:2
!p! (G/ | c2 B>)(G c2 B>)(G | c2 B>)(G c2 B>)(G | c2 B>)(G c2 B>)(G | c2 B>)(G c2 B>)(G | %5
w: O,|_ _ o, _ _ o,|_ _ o, _ _ o,|_ _ o, _ _ o,|_ _ o, _ _ o,|
 c2 B>)(G c2 !fermata!B2) |!<(! c4 c4!<)! | A2 c2 d4 | z4!p! f2 e2 | (d2 c2) A4 | G8 |[M:3/2] z12 | %12
w: _ _ o, _ _|vir- go|vir- gi- num,|vir- go|vir- * gi-|num,||
[M:4/4] z8 |[M:5/8] cBd cB |[M:3/4] G2 A2 B2 |[M:5/8] cBc BA |[M:3/4] G2 G2 A2 |[M:5/8] GAB cB | %18
w: |Qui- a nec pri- mam|si- mi- lem,|qui- a nec pri- mam|si- mi- lem,|qui- a nec pri- mam|
[M:3/4] A2 A2 B2 | c2 c2 !fermata!_B2 |[M:5/8]"^subito"!p! _BBB BB |[M:2/4] !>!A2 !>!A2 || %22
w: si- mi- lem|vi- sa es|nec ha- be- re se-|quen- tem.|
[M:4/4]!p! (G/ | c2 B>)(G c2 B>)(G | c2 B>)(G c2 B>)(G | c2 B>)(G c2 B>)(G | c2 B>)(G c2 B>)G | %27
w: O,|* * o, * * o,|* * o, * * o,|* * o, * * o,|* * o, * * o,|
 c2 c2 _B2 c2 | _B4 G4 | A6 z2 | z8 |!>(! z8!>)! || z8 | z8 |!p!!<(! A4 B4!<)! |!>(! cB A4!>)! z2 | %36
w: fi- li- ae Ie-|ru- sa-|lem!|||||my- *|ste- ri- um|
 (A4!<(! B4)!<)! |!>(! cB A4 z2!>)! |!<(! (A4 B4)!<)! |!>(! cB A4 z2!>)! |!<(! (A4 B4)!<)! | %41
w: my- *|ste- ri- um|my- *|ste- ri- um|my- *|
!>(! cB A4!>)! z2 |!<(! (A4 B4) | cB!<)! A2!f! B2 G2 | !tenuto!A2 !tenuto!A2 !tenuto!A4 ||!p! (G/ | %46
w: ste- ri- um|my- *|ste- ri- um hoc, quod|cer- ni- tis.|O,|
 c2 B>)(G c2 B>)(G | c2 B>)(G c2 B>)(G | c2 B>)(G c2 B>)(G | c2 B>)(G c2 B>)G | %50
w: * * o, * * o,|* * o, * * o,|* * o, * * o,|* * o, * * o,|
 c2 B>(G c2 !fermata!B2) |!<(! c4 c4!<)! | !fermata!_B2 !fermata!_A2 !fermata!=A4 |] %53
w: _ _ o, * *|vir- go|vir- gi- num,|
V:3
 z/ | z8 | z8 | z4!p! (G2 D2 | E4) z4 | z4 !fermata!G4 |!<(! G4 G4!<)! | G2 A2 c4 | z8 | %9
w: |||O, _|_|o,|vir- go|vir- gi- num,||
!p! (F2 D2) C4 | D8 |[M:3/2] G4 F2 D2 F2 A2 |[M:4/4] c4 B4 |[M:5/8] z5 |[M:3/4] z6 | %15
w: vir _ gi-|num,|Quo- mo- do fi- et|is- tud?|||
[M:5/8] FGA GF |[M:3/4] _E2 _B,2 F2 |[M:5/8] CD=E FG |[M:3/4] G2 F2 D2 | E2 E2 !fermata!F2 | %20
w: Qui- a nec pri- mam|si- mi- lem,|qui- a nec pri- mam|si- mi- lem|vi- sa es|
[M:5/8]"^subito"!p! FFF FF |[M:2/4] !>!D2 !>!D2 ||[M:4/4] z/ | z8 | z8 | z8 | z4 z2 z3/2 G/ | %27
w: nec ha- be- re se-|quen- tem.|||||o,|
 A2 A2 G2 A2 | F4 E4 | ^F6 z2 | z8 | !fermata!z2 !fermata!z2 !fermata!z3!p! D || F4 D2 z D | %33
w: fi- li- ae Ie-|ru- sa-|lem!||Di-|vi- num, di-|
 FG D4 z D | F4 D2 z D | FG D4 z D | F4 D2 z D | FG D4 z D | F4 D2 z D | FG D4 z D | F4 D2 z D | %41
w: vi- num est, di|vi num, di|vi- num est, *|vi- num, di-|vi- num est, di|vi- num, di-|vi- num est, *|vi- num, di-|
 FG D4 z D | F4 D2 z2 | z8 | z8 || z/ | z8 | z8 | z4!p! (G2 D2 | E4) z4 | z4 !fermata!G4 | %51
w: vi- num est, *|vi- num.||||||O, *||o,|
!<(! G4 A4!<)! | !fermata!F2 !fermata!_E2 !fermata!D4 |] %53
w: vir- go|vir- gi- num,|

